X:1
T:Hard Travelin'
M:4/4
L:1/8
K:G
 D2 EE GG A2| B4 AGE-D| G2 G4 A2| B8| D2 EE GG A2| B4 AG E2| A2 A4 F2|\
 D8| D2 EE GG A2| B4 AG E2| G4A-A E2| G4A-A E2| D2 dd dd c2| B4 BG A2|\
 G8-| G2 z4 z2|
